images/corp-strategy.svg

<svg height="64" viewBox="0 0 57 64" width="57" xmlns="http://www.w3.org/2000/svg"><path d="m1.58942789 16.5331311c3.86782273-11.26720947 15.35820111-16.53369561 25.66950981-16.5331311 1.4402488 0 2.85867.10274051 4.2289199.30633984 8.3050461 1.27767046 14.5020301 5.36621594 17.8239733 11.69096696.7666023 1.469227 1.3416481 2.9388303 1.7249492 4.5358243l.2555341.9583469v.127767l.1915565 1.1499034c.2557223 1.9165057.3195117 3.896989.0639776 6.0052394v.127767.5748577c0 .7667904.1917447 1.5333927.5110682 2.2362055l4.6635913 9.8382508c.3833011.8303917.3195117 1.852528-.1917447 2.6193185-.51088.7666023-1.3414599 1.2776704-2.2998068 1.2776704h-2.5553409v12.8408704c0 1.9166939-1.4694151 3.386109-3.3859208 3.386109l-7.4106769.1275789c-.8305799 0-1.4694151.6390234-1.4694151 1.4694151v3.513876c0 .7026247-.5750458 1.2136929-1.213881 1.2136929h-26.7678548c-.3834893 0-.7666023-.1917447-1.0221364-.5110682-.1917446-.3195117-.2557222-.7666023-.1279552-1.1499034l.1917447-.4472787c2.1082503-5.2386371 2.4275738-9.7744613.8305798-13.4797057-.8943693-2.1722279-2.17203974-3.3859208-3.06659724-4.2165007l-.25553409-.2555341c-7.09135332-7.3468874-9.51873903-15.7159112-7.02737571-25.1070713 0 0 .19155648-.7666023.25553409-1.0859258.06397761-.3195117.3195117-1.1499034.38330114-1.213881zm23.82940091-7.73000043-6.8358193 2.29980683c-.5750457-.8305799-1.5333927-1.34164807-2.6193185-1.34164807-1.7889268 0-3.1941761 1.40543747-3.1941761 3.19417617 0 .7666023.2555341 1.4694151.7026246 1.9806715l-3.64145487 5.2384489c-.3195117-.1275789-.63883523-.1917447-.95834693-.1917447-1.78873865 0-3.19436433 1.4056257-3.19436433 3.1943643-.12757888 1.7889268 1.34183624 3.1943644 3.06659728 3.1943644.19155648 0 .38330114 0 .57504579-.0637895l2.74708556 5.3024265c-.5750458.5748576-.9583469 1.4054375-.9583469 2.2998068 0 1.7887387 1.4054375 3.1941762 3.1943643 3.1941762 1.7887387 0 3.1941762-1.4054375 3.1941762-3.1941762 0-.5750457-.1915565-1.0861139-.4472788-1.5971821l7.4748427-7.793978c.4470905.2555341.8943693.3833011 1.4692269.3833011 1.7887386 0 3.1943643-1.4054375 3.1943643-3.1941761v-.1279552l8.6243697-2.9384539c.5750458.8303917 1.5333928 1.3412717 2.6195067 1.3412717 1.7885505 0 3.193988-1.4054375 3.193988-3.193988 0-1.7889268-1.4054375-3.1943643-3.193988-3.1943643-.7667904 0-1.4696033.2555341-1.9804833.7026247l-6.8360074-4.66359132c.1279552-.31932353.1917447-.63883523.1917447-.95834693 0-1.78855047-1.4054375-3.19417615-3.1943643-3.19417615-1.7885505 0-3.193988 1.40562568-3.193988 3.19417615zm3.2580032 3.06637143c.7666023-.127767 1.3416481-.3193235 1.7887387-.7026246l6.8358192 4.6635912c-.1277671.3193236-.1917447.6388353-.1917447.958347v.1275789l-8.6245578 2.9388302c-.3193236-.3833011-.7026247-.7028129-1.1497153-.9583469zm-5.8134947 9.1995473-11.1161093.9583469c-.1277671-.3195117-.2555341-.5750458-.5110682-.8305799l3.6414549-5.2386371c.3195117.1277671.6388352.1915565.9583469.1915565.6388352 0 1.2136929-.1915565 1.724761-.51088l5.4941712 4.7911702c-.0637894.1917446-.1915565.3834893-.1915565.6390234zm3.0025444-10.6050224c.3195117.3833011.7028129.7666023 1.1499034.9583469l-1.341648 7.0273757c-.51088.0637895-.9581588.1917447-1.4054375.4470906l-5.4941712-4.7913583c.1917447-.2555341.2555341-.7026247.2555341-1.213881v-.1275789zm-14.0547326 13.3520327 11.1798988-.958347c.0637894.1277671.1277671.2557223.1917447.3833012l-7.4746545 7.8579556c-.4472787-.2555341-.8943693-.3833012-1.4694151-.3833012-.1915565 0-.3833011 0-.5748576.0639776l-2.7470856-5.3026146c.4470906-.4470906.7666023-1.0219482.8943693-1.6609716z" fill="#e0be41" fill-rule="evenodd"/></svg>

<?xml version="1.0" encoding="UTF-8"?>
<svg width="57px" height="64px" viewBox="0 0 57 64" version="1.1" xmlns="http://www.w3.org/2000/svg" xmlns:xlink="http://www.w3.org/1999/xlink">
    <!-- Generator: Sketch 50.2 (55047) - http://www.bohemiancoding.com/sketch -->
    <title>Combined Shape</title>
    <desc>Created with Sketch.</desc>
    <defs>
        <path d="M1.58942789,16.5331311 C5.45725062,5.26592163 16.947629,-0.000564508304 27.2589377,0 C28.6991865,0 30.1176077,0.102740511 31.4878576,0.30633984 C39.7929037,1.5840103 45.9898877,5.67255578 49.3118309,11.9973068 C50.0784332,13.4665338 50.653479,14.9361371 51.0367801,16.5331311 L51.2923142,17.491478 L51.2923142,17.619245 L51.4838707,18.7691484 C51.739593,20.6856541 51.8033824,22.6661374 51.5478483,24.7743878 L51.5478483,24.9021548 L51.5478483,25.4770125 C51.5478483,26.2438029 51.739593,27.0104052 52.0589165,27.713218 L56.7225078,37.5514688 C57.1058089,38.3818605 57.0420195,39.4039968 56.5307631,40.1707873 C56.0198831,40.9373896 55.1893032,41.4484577 54.2309563,41.4484577 L51.6756154,41.4484577 L51.6756154,54.2893281 C51.6756154,56.206022 50.2062003,57.6754371 48.2896946,57.6754371 L40.8790177,57.803016 C40.0484378,57.803016 39.4096026,58.4420394 39.4096026,59.2724311 L39.4096026,62.7863071 C39.4096026,63.4889318 38.8345568,64 38.1957216,64 L11.4278668,64 C11.0443775,64 10.6612645,63.8082553 10.4057304,63.4889318 C10.2139858,63.1694201 10.1500082,62.7223295 10.2777752,62.3390284 L10.4695199,61.8917497 C12.5777702,56.6531126 12.8970937,52.1172884 11.3000997,48.412044 C10.4057304,46.2398161 9.12805996,45.0261232 8.23350246,44.1955433 L7.97796837,43.9400092 C0.886615051,36.5931218 -1.54077066,28.224098 0.950592659,18.8329379 C0.950592659,18.8329379 1.14214914,18.0663356 1.20612675,17.7470121 C1.27010436,17.4275004 1.52563845,16.5971087 1.58942789,16.5331311 Z M25.4188288,8.80313067 L18.5830095,11.1029375 C18.0079638,10.2723576 17.0496168,9.76128943 15.963691,9.76128943 C14.1747642,9.76128943 12.7695149,11.1667269 12.7695149,12.9554656 C12.7695149,13.7220679 13.025049,14.4248807 13.4721395,14.9361371 L9.83068463,20.174586 C9.51117293,20.0470071 9.1918494,19.9828413 8.8723377,19.9828413 C7.08359905,19.9828413 5.67797337,21.388467 5.67797337,23.1772056 C5.55039449,24.9661324 7.01980961,26.37157 8.74457065,26.37157 C8.93612713,26.37157 9.12787179,26.37157 9.31961644,26.3077805 L12.066702,31.610207 C11.4916562,32.1850646 11.1083551,33.0156445 11.1083551,33.9100138 C11.1083551,35.6987525 12.5137926,37.10419 14.3027194,37.10419 C16.0914581,37.10419 17.4968956,35.6987525 17.4968956,33.9100138 C17.4968956,33.3349681 17.3053391,32.8238999 17.0496168,32.3128317 L24.5244595,24.5188537 C24.97155,24.7743878 25.4188288,24.9021548 25.9936864,24.9021548 C27.782425,24.9021548 29.1880507,23.4967173 29.1880507,21.7079787 L29.1880507,21.5800235 L37.8124204,18.6415696 C38.3874662,19.4719613 39.3458132,19.9828413 40.4319271,19.9828413 C42.2204776,19.9828413 43.6259151,18.5774038 43.6259151,16.7888533 C43.6259151,14.9999265 42.2204776,13.594489 40.4319271,13.594489 C39.6651367,13.594489 38.9623238,13.8500231 38.4514438,14.2971137 L31.6154364,9.63352238 C31.7433916,9.31419885 31.8071811,8.99468715 31.8071811,8.67517545 C31.8071811,6.88662498 30.4017436,5.4809993 28.6128168,5.4809993 C26.8242663,5.4809993 25.4188288,6.88662498 25.4188288,8.67517545 L25.4188288,8.80313067 Z M28.676832,11.8695021 C29.4434343,11.7417351 30.0184801,11.5501786 30.4655707,11.1668775 L37.3013899,15.8304687 C37.1736228,16.1497923 37.1096452,16.469304 37.1096452,16.7888157 L37.1096452,16.9163946 L28.4850874,19.8552248 C28.1657638,19.4719237 27.7824627,19.1524119 27.3353721,18.8968779 L28.676832,11.8695021 Z M22.8633373,21.0690494 L11.747228,22.0273963 C11.6194609,21.7078846 11.4916939,21.4523505 11.2361598,21.1968164 L14.8776147,15.9581793 C15.1971264,16.0859464 15.5164499,16.1497358 15.8359616,16.1497358 C16.4747968,16.1497358 17.0496545,15.9581793 17.5607226,15.6388558 L23.0548938,20.430026 C22.9911044,20.6217706 22.8633373,20.8135153 22.8633373,21.0690494 Z M25.8658817,10.464027 C26.1853934,10.8473281 26.5686946,11.2306293 27.0157851,11.4223739 L25.6741371,18.4497496 C25.1632571,18.5135391 24.7159783,18.6414943 24.2686996,18.8968402 L18.7745284,14.1054819 C18.9662731,13.8499478 19.0300625,13.4028572 19.0300625,12.8916009 L19.0300625,12.764022 L25.8658817,10.464027 Z M11.8111491,23.8160597 L22.9910479,22.8577127 C23.0548373,22.9854798 23.118815,23.113435 23.1827926,23.2410139 L15.7081381,31.0989695 C15.2608594,30.8434354 14.8137688,30.7156683 14.238723,30.7156683 C14.0471665,30.7156683 13.8554219,30.7156683 13.6638654,30.7796459 L10.9167798,25.4770313 C11.3638704,25.0299407 11.6833821,24.4550831 11.8111491,23.8160597 Z" id="path-1"></path>
    </defs>
    <g id="Page-1" stroke="none" stroke-width="1" fill="none" fill-rule="evenodd">
        <g id="2.1.1.Corporate" transform="translate(-158.000000, -624.000000)">
            <g id="Group-3" transform="translate(158.000000, 624.000000)">
                <g id="Strategy">
                    <mask id="mask-2" fill="white">
                        <use xlink:href="#path-1"></use>
                    </mask>
                    <use id="Combined-Shape" fill="#E0BE41" xlink:href="#path-1"></use>
                </g>
            </g>
        </g>
    </g>
</svg>
